X: 12177
T: Exile's Return, The
R: hornpipe
M: 4/4
K: Cmajor
|:G/G/G|EGeG EGeG|FGdF EGcg|f/a/f e/g/e d/f/d c/e/c|BcAB GAFG|
E/F/G eG E/F/G eG|F/G/A dF E/F/G cg|f/a/f e/g/e d/f/d c/e/c|1 BGAB c2:|2 B/A/G AB cE E/E/E||
|:eE/E/dE/E/ cE/E/BE/E/|A^GAc ecAB|^GEGB edcB|AEAc ecAf|
e/g/e d/f/d c/e/c B/d/B|AEAc ecAB|^GEGB edcB|1 AEcB A2 z f:|2 AEcB A3||

